X:1
T:Auld Lang Syne
T:Auld Lang Syne
T:Robert Burns
Z:Robert Burns
%%score [ 1 2 3 4 ]
L:1/8
Q:1/4=70
M:4/4
K:F
V:1 treble nm="Sopran"
V:2 treble nm="Alt"
V:3 treble-8 nm="Tenor"
V:4 bass nm="Bass"
V:1
 C2 | F3 F F2 A2 | G3 F G2 A2 | F3 F A2 c2 | d6 d2 | c3 A A2 F2 | G3 F G2 A2 | (F3 D) (D2 C2) | %8
w: 1.Should|auld ac- quaint- ance|be for- got, and|nev- er brought to|mind? Should|auld ac- quaint- ance|be for- got, and|days of auld lang|
w: 2.And|here's a hand, my|trust- y frien', and|gie's a hand o'|thine. We'll|take a cup o'|kind- ness yet for|auld _ lang _|
 F4 z2 || d2 | (c3 A) (A2 F2) | G3 F G2 d2 | (c3 A) (A2 c2) | d6 d2 | c3 A A2 F2 | G3 F G2 A2 | %16
w: syne?|For|auld _ lang _|syne, my dear, for|auld _ lang _|syne. We'll|take a cup o'|kind- ness yet, for|
w: syne.||||||||
 (F3 D) (D2 C2) | F6 |] %18
w: auld _ lang _|syne.|
w: ||
V:2
 C2 | C3 C C2 F2 | E3 F E2 E2 | C3 C F2 F2 | F6 F2 | F3 F F2 F2 | E3 F E2 F2 | (D3 B,) (B,2 B,2) | %8
w: 1.Should|auld ac- quaint- ance|be for- got, and|nev- er brought to|mind? Should|auld ac- quaint- ance|be for- got, and|days of auld lang|
w: 2.And|here's a hand, my|trust- y frien', and|gie's a hand o'|thine. We'll|take a cup o'|kind- ness yet for|auld _ lang _|
 A,4 z2 || F2 | F4 F4 | E3 D E2 B2 | (A3 F) F4 | F6 F2 | F3 F F2 C2 | C3 C C2 ^C2 | (D3 A,) B,4 | %17
w: syne?|For|auld lang|syne, my dear, for|auld _ lang|syne. We'll|take a cup o'|kind- ness yet, for|auld _ lang|
w: syne.|||||||||
 A,6 |] %18
w: syne.|
w: |
V:3
 A2 | A3 A A2 c2 | B3 A B2 c2 | A3 A c2 A2 | B6 B2 | A3 c c2 c2 | B3 A B2 c2 | (B3 F) (F2 E2) | %8
w: 1.Should|auld ac- quaint- ance|be for- got, and|nev- er brought to|mind? Should|auld ac- quaint- ance|be for- got, and|days of auld lang|
w: 2.And|here's a hand, my|trust- y frien', and|gie's a hand o'|thine. We'll|take a cup o'|kind- ness yet for|auld _ lang _|
 F4 z2 || B2 | (A3 c) c4 | c3 c c2 c2 | c4 (c2 A2) | B6 B2 | A3 c c2 F2 | E3 D E2 A2 | %16
w: syne?|For|auld _ lang|syne, my dear, for|auld lang _|syne. We'll|take a cup o'|kind- ness yet, for|
w: syne.||||||||
 (A3 F) (F2 E2) | F6 |] %18
w: auld _ lang _|syne.|
w: ||
V:4
 F,2 | F,3 F, F,2 F,2 | C,3 C, C,2 C,2 | F,3 F, F,2 F,2 | B,,6 D,2 | F,3 F, F,2 A,,2 | %6
w: 1.Should|auld ac- quaint- ance|be for- got, and|nev- er brought to|mind? Should|auld ac- quaint- ance|
w: 2.And|here's a hand, my|trust- y frien', and|gie's a hand o'|thine. We'll|take a cup o'|
 C,3 C, C,2 A,,2 | (B,,3 B,,) (B,,2 C,2) | F,,4 z2 || F,2 | F,4 (F,2 A,,2) | C,3 C, C,2 C,2 | %12
w: be for- got, and|days of auld lang|syne?|For|auld lang _|syne, my dear, for|
w: kind- ness yet for|auld _ lang _|syne.||||
 F,4 F,4 | B,,6 D,2 | F,3 F, F,2 A,,2 | C,3 C, C,2 A,,2 | D,4 (B,,2 C,2) | F,,6 |] %18
w: auld lang|syne. We'll|take a cup o'|kind- ness yet, for|auld lang _|syne.|
w: ||||||

